X: 1
T: Scotland the Brave   [A]
R: march
Z: 2018 John Chambers <jc:trillian.mit.edu>
S: Handout at Concord Slow Scottish jam session 2018-11-30
N: Lyrics from the singing of Tom and Marie Teven.
M: 2/4
L: 1/8
K: A
"Verse"[|\
"A"A2 A>B | cA ce | a2 a>g | ae cA | "D"d2 f>d | "A"ce cA | "E7"B2 e>f | ed cB |
"A"A2 A>B | cA ce | a2 a>g | ae cA | "D"d2 f>d | "A"ce cA | "E7"B2 A>G | "A"A2 ga |]
"Chorus"[|\
"E7"b2 b>b | bg e2 | "A"a2 c'>b | "D"af "A"e2 | "F#m"a2 a>a | "Cm"g2 a>g | "B7"fa gf | "E7"ed cB |
"A"A2 A>B | cA ce | a2 a>g | ae cA | "D"d2 f>d | "A"ce cA | "E7"B2 A>G | "A"A3 z |]
